X: 1031
T: Wimbush Rag
C:The Canebrake Rattlers
B: jims roots
M:C|
L:1/8
Q: 1/4=100
K:D
V:1 
"A7"[A/f/][A/g/][A2a] b afeA | "D"d2ed fa3 | "A7"f/g/a2 b afeA | "D"dAed e[D3d] :|
"G (Bm)"[DA][D2B]d BAFD | "A7"ABAF EFAB- | "G"BABd Bcde | "A7"f2d2"D"e2d2- ||
"A7"FEDB, "D"A,B,D2- || [M:2/4]D2A2 || [M:C|] "G"[DA][D2B]d BAde | "A7"f2df "D"e2d2- ||[M:2/4]d4|]
V:M:2/4 
d2A2 || [M:C|] "G (Bm)"[DA][D2B] d BAFD | "A7"ABAF EFAB- | "G"B B2d BAFD |
% abcbook-tune_id 6298c297a51496fd09948689


% abcbook-boost 0
% abcbook-tablature 
% abcbook-transpose 
% abcbook-lastupdated 1654178457002
% abcbook-soundfonts 
% abcbook-repeats 1


